homework7/img/cart_icon.svg

<svg width="27" height="25" viewBox="0 0 27 25" fill="none" xmlns="http://www.w3.org/2000/svg">
<path d="M21.9521 23.2662H21.8398C21.2307 23.2662 20.7189 22.7666 20.6747 22.1289C20.6302 21.4602 21.1187 20.8781 21.7638 20.8341C21.7892 20.8324 21.8157 20.8315 21.8417 20.8315C22.4587 20.8315 22.9755 21.3214 23.0214 21.9482C23.0331 22.1967 22.9926 22.5509 22.7372 22.8434L22.7313 22.8502L22.7255 22.8571C22.5287 23.0907 22.262 23.2316 21.9521 23.2662ZM8.22009 23.2599C7.56952 23.2599 7.04028 22.7169 7.04028 22.0496C7.04028 21.3827 7.56952 20.8401 8.22009 20.8401C8.87067 20.8401 9.3999 21.3827 9.3999 22.0496C9.3999 22.7169 8.87067 23.2599 8.22009 23.2599Z" fill="white"/>
<path d="M21.8765 22.2662C21.9215 22.2549 21.9428 22.2339 21.9605 22.2129C21.9683 22.2037 21.9761 22.1946 21.9839 22.1855C22.0204 22.1438 22.0237 22.0553 22.0229 22.0105C22.0097 21.9044 21.9189 21.8315 21.8417 21.8315C21.838 21.8315 21.8341 21.8317 21.8317 21.8318C21.7536 21.8372 21.6658 21.9409 21.6724 22.0625C21.6818 22.1793 21.7679 22.2662 21.8397 22.2662H21.8765ZM8.22003 22.2599C8.31921 22.2599 8.39984 22.1655 8.39984 22.0496C8.39984 21.9341 8.31921 21.8401 8.22003 21.8401C8.12091 21.8401 8.04022 21.9341 8.04022 22.0496C8.04022 22.1655 8.12091 22.2599 8.22003 22.2599ZM21.9999 24.2662C21.9522 24.2662 21.8883 24.2662 21.8397 24.2662C20.7021 24.2662 19.7571 23.3545 19.677 22.198C19.5969 20.9929 20.4942 19.9183 21.6957 19.8364C21.7446 19.8331 21.7933 19.8315 21.8417 19.8315C22.9804 19.8315 23.9418 20.7324 24.0195 21.8884C24.051 22.4915 23.8746 23.0612 23.4903 23.5012C23.106 23.9575 22.5768 24.2177 21.9999 24.2662ZM8.22003 24.2599C7.01581 24.2599 6.04022 23.2709 6.04022 22.0496C6.04022 20.8291 7.01581 19.8401 8.22003 19.8401C9.42419 19.8401 10.3998 20.8291 10.3998 22.0496C10.3998 23.2709 9.42419 24.2599 8.22003 24.2599ZM21.1989 17.3938H9.13354C8.70062 17.3938 8.31635 17.1005 8.2038 16.6775L4.27802 2.24768H1.52222C0.993896 2.24768 0.561035 1.80859 0.561035 1.27039C0.561035 0.733032 0.993896 0.292969 1.52222 0.292969H4.99982C5.43182 0.292969 5.8161 0.586304 5.92859 1.01025L9.85443 15.4391H20.5581L24.1149 7.13379H12.2583C11.7291 7.13379 11.2962 6.69373 11.2962 6.15649C11.2962 5.61914 11.7291 5.17908 12.2583 5.17908H25.5891C25.9095 5.17908 26.2146 5.34192 26.3901 5.61914C26.5665 5.89539 26.5989 6.23743 26.4702 6.547L22.08 16.807C21.9198 17.1653 21.5832 17.3938 21.1989 17.3938Z" fill="white"/>
<path d="M21.8765 22.2662C21.9215 22.2549 21.9428 22.2339 21.9605 22.2129C21.9683 22.2037 21.9761 22.1946 21.9839 22.1855C22.0204 22.1438 22.0237 22.0553 22.0229 22.0105C22.0097 21.9044 21.9189 21.8315 21.8417 21.8315C21.838 21.8315 21.8341 21.8317 21.8317 21.8318C21.7536 21.8372 21.6658 21.9409 21.6724 22.0625C21.6818 22.1793 21.7679 22.2662 21.8397 22.2662H21.8765ZM8.22003 22.2599C8.31921 22.2599 8.39984 22.1655 8.39984 22.0496C8.39984 21.9341 8.31921 21.8401 8.22003 21.8401C8.12091 21.8401 8.04022 21.9341 8.04022 22.0496C8.04022 22.1655 8.12091 22.2599 8.22003 22.2599ZM21.9999 24.2662C21.9522 24.2662 21.8883 24.2662 21.8397 24.2662C20.7021 24.2662 19.7571 23.3545 19.677 22.198C19.5969 20.9929 20.4942 19.9183 21.6957 19.8364C21.7446 19.8331 21.7933 19.8315 21.8417 19.8315C22.9804 19.8315 23.9418 20.7324 24.0195 21.8884C24.051 22.4915 23.8746 23.0612 23.4903 23.5012C23.106 23.9575 22.5768 24.2177 21.9999 24.2662ZM8.22003 24.2599C7.01581 24.2599 6.04022 23.2709 6.04022 22.0496C6.04022 20.8291 7.01581 19.8401 8.22003 19.8401C9.42419 19.8401 10.3998 20.8291 10.3998 22.0496C10.3998 23.2709 9.42419 24.2599 8.22003 24.2599ZM21.1989 17.3938H9.13354C8.70062 17.3938 8.31635 17.1005 8.2038 16.6775L4.27802 2.24768H1.52222C0.993896 2.24768 0.561035 1.80859 0.561035 1.27039C0.561035 0.733032 0.993896 0.292969 1.52222 0.292969H4.99982C5.43182 0.292969 5.8161 0.586304 5.92859 1.01025L9.85443 15.4391H20.5581L24.1149 7.13379H12.2583C11.7291 7.13379 11.2962 6.69373 11.2962 6.15649C11.2962 5.61914 11.7291 5.17908 12.2583 5.17908H25.5891C25.9095 5.17908 26.2146 5.34192 26.3901 5.61914C26.5665 5.89539 26.5989 6.23743 26.4702 6.547L22.08 16.807C21.9198 17.1653 21.5832 17.3938 21.1989 17.3938Z" fill="white"/>
</svg>

<svg xmlns="http://www.w3.org/2000/svg" width="27" height="25" fill="none"><path fill="#fff" d="M21.952 23.266h-.112c-.61 0-1.121-.5-1.165-1.137-.045-.669.444-1.25 1.089-1.295a1.196 1.196 0 0 1 1.258 1.114c.011.249-.03.603-.285.895l-.006.007-.006.007a1.158 1.158 0 0 1-.773.41ZM8.22 23.26c-.65 0-1.18-.543-1.18-1.21 0-.667.53-1.21 1.18-1.21.65 0 1.18.543 1.18 1.21 0 .667-.53 1.21-1.18 1.21Z"/><path fill="#fff" d="M21.877 22.266a.146.146 0 0 0 .084-.053c.007-.01.015-.018.023-.027.036-.042.04-.13.039-.175-.013-.107-.104-.18-.181-.18h-.01c-.078.006-.166.11-.16.232.01.116.096.203.168.203h.037ZM8.22 22.26c.1 0 .18-.095.18-.21 0-.116-.08-.21-.18-.21-.1 0-.18.094-.18.21 0 .116.08.21.18.21ZM22 24.266h-.16c-1.138 0-2.083-.911-2.163-2.068-.08-1.205.817-2.28 2.019-2.362.049-.003.097-.005.146-.005 1.138 0 2.1.901 2.178 2.057.031.603-.145 1.173-.53 1.613a2.16 2.16 0 0 1-1.49.765ZM8.22 24.26c-1.204 0-2.18-.99-2.18-2.21s.976-2.21 2.18-2.21c1.204 0 2.18.99 2.18 2.21s-.976 2.21-2.18 2.21Zm12.979-6.866H9.134a.965.965 0 0 1-.93-.716L4.278 2.247H1.522a.972.972 0 0 1-.961-.978c0-.537.433-.977.961-.977H5c.432 0 .816.293.929.717l3.925 14.43h10.704l3.557-8.306H12.258a.973.973 0 0 1-.962-.978c0-.537.433-.977.962-.977H25.59c.32 0 .626.163.801.44a1 1 0 0 1 .08.928l-4.39 10.26a.963.963 0 0 1-.881.587Z"/><path fill="#fff" d="M21.877 22.266a.146.146 0 0 0 .084-.053c.007-.01.015-.018.023-.027.036-.042.04-.13.039-.175-.013-.107-.104-.18-.181-.18h-.01c-.078.006-.166.11-.16.232.01.116.096.203.168.203h.037ZM8.22 22.26c.1 0 .18-.095.18-.21 0-.116-.08-.21-.18-.21-.1 0-.18.094-.18.21 0 .116.08.21.18.21ZM22 24.266h-.16c-1.138 0-2.083-.911-2.163-2.068-.08-1.205.817-2.28 2.019-2.362.049-.003.097-.005.146-.005 1.138 0 2.1.901 2.178 2.057.031.603-.145 1.173-.53 1.613a2.16 2.16 0 0 1-1.49.765ZM8.22 24.26c-1.204 0-2.18-.99-2.18-2.21s.976-2.21 2.18-2.21c1.204 0 2.18.99 2.18 2.21s-.976 2.21-2.18 2.21Zm12.979-6.866H9.134a.965.965 0 0 1-.93-.716L4.278 2.247H1.522a.972.972 0 0 1-.961-.978c0-.537.433-.977.961-.977H5c.432 0 .816.293.929.717l3.925 14.43h10.704l3.557-8.306H12.258a.973.973 0 0 1-.962-.978c0-.537.433-.977.962-.977H25.59c.32 0 .626.163.801.44a1 1 0 0 1 .08.928l-4.39 10.26a.963.963 0 0 1-.881.587Z"/></svg>
